X: 3
T: The Abbey
R: reel
M: 4/4
L: 1/8
K: Ador
~A3B A2GE|A2GA BedB|~A3B AGEF|1 G2GA BedB:|2 G2GA Bddg||eg~g2 a2ba|gabg aged|eg~g2 a2ga|bgaf gedg|eg~g2 agbg|agbg aged|eggb a2ga|bgaf gedB||


Tune 477	Setting 27957

